svg/folder.svg

<?xml version="1.0" encoding="UTF-8"?>
<svg xmlns="http://www.w3.org/2000/svg" xmlns:xlink="http://www.w3.org/1999/xlink" width="32" height="32" viewBox="0 0 32 32">
<path fill-rule="nonzero" fill="rgb(71.372549%, 86.27451%, 99.607843%)" fill-opacity="1" d="M 1.199219 28.398438 L 1.199219 3.601562 L 9.433594 3.601562 L 11.835938 6 L 28.398438 6 L 28.398438 28.398438 Z M 1.199219 28.398438 "/>
<path fill-rule="nonzero" fill="rgb(27.843137%, 53.333333%, 78.039216%)" fill-opacity="1" d="M 9.269531 4 L 11.667969 6.398438 L 28 6.398438 L 28 28 L 1.601562 28 L 1.601562 4 Z M 9.601562 3.199219 L 0.800781 3.199219 L 0.800781 28.800781 L 28.800781 28.800781 L 28.800781 5.601562 L 12 5.601562 Z M 9.601562 3.199219 "/>
<path fill-rule="nonzero" fill="rgb(100%, 100%, 100%)" fill-opacity="1" d="M 3.601562 6 L 28.398438 6 L 28.398438 20.398438 L 3.601562 20.398438 Z M 3.601562 6 "/>
<path fill-rule="nonzero" fill="rgb(27.843137%, 53.333333%, 78.039216%)" fill-opacity="1" d="M 28 6.398438 L 28 20 L 4 20 L 4 6.398438 Z M 28.800781 5.601562 L 3.199219 5.601562 L 3.199219 20.800781 L 28.800781 20.800781 Z M 28.800781 5.601562 "/>
<path fill-rule="nonzero" fill="rgb(87.45098%, 94.117647%, 99.607843%)" fill-opacity="1" d="M 1.277344 28.398438 L 4.332031 11.601562 L 12.921875 11.601562 L 15.320312 10 L 31.527344 10 L 28.460938 28.398438 Z M 1.277344 28.398438 "/>
<path fill-rule="nonzero" fill="rgb(27.843137%, 53.333333%, 78.039216%)" fill-opacity="1" d="M 31.054688 10.398438 L 28.121094 28 L 1.757812 28 L 4.667969 12 L 13.042969 12 L 13.242188 11.867188 L 15.441406 10.398438 Z M 32 9.601562 L 15.199219 9.601562 L 12.800781 11.199219 L 4 11.199219 L 0.800781 28.800781 L 28.800781 28.800781 Z M 32 9.601562 "/>
</svg>

<svg role="img" viewBox="0 0 32 32" height="32" width="32" xmlns="http://www.w3.org/2000/svg"><path d="M1.2 28.398V3.602h8.234L11.836 6h16.562v22.398Zm0 0" fill="rgb(71.372549%, 86.27451%, 99.607843%)"/><path d="m9.27 4 2.398 2.398H28V28H1.602V4Zm.332-.8H.8v25.6h28V5.603H12Zm0 0" fill="rgb(27.843137%, 53.333333%, 78.039216%)"/><path d="M3.602 6h24.796v14.398H3.602Zm0 0" fill="rgb(100%, 100%, 100%)"/><path d="M28 6.398V20H4V6.398Zm.8-.796H3.2V20.8h25.6Zm0 0" fill="rgb(27.843137%, 53.333333%, 78.039216%)"/><path d="m1.277 28.398 3.055-16.796h8.59L15.32 10h16.207l-3.066 18.398Zm0 0" fill="rgb(87.45098%, 94.117647%, 99.607843%)"/><path d="M31.055 10.398 28.12 28H1.758l2.91-16h8.375l.2-.133 2.198-1.469ZM32 9.602H15.2l-2.4 1.597H4L.8 28.801h28Zm0 0" fill="rgb(27.843137%, 53.333333%, 78.039216%)"/></svg>
